apps/scalable/archive-mounter.svg

<svg xmlns="http://www.w3.org/2000/svg" style="isolation:isolate" width="256" height="256"><defs><filter id="a" width="270.648" height="254.338" x="-7.32" y="2.95" filterUnits="userSpaceOnUse"><feGaussianBlur xmlns="http://www.w3.org/2000/svg" in="SourceGraphic" stdDeviation="4.294"/><feOffset xmlns="http://www.w3.org/2000/svg" dy="4" result="pf_100_offsetBlur"/><feFlood xmlns="http://www.w3.org/2000/svg" flood-opacity=".4"/><feComposite xmlns="http://www.w3.org/2000/svg" in2="pf_100_offsetBlur" operator="in" result="pf_100_dropShadow"/><feBlend xmlns="http://www.w3.org/2000/svg" in="SourceGraphic" in2="pf_100_dropShadow"/></filter></defs><g filter="url(#a)"><linearGradient id="b" x1=".5" x2=".5" y1="-.036" y2="1.036" gradientTransform="matrix(244.648 0 0 228.338 5.676 11.947)" gradientUnits="userSpaceOnUse"><stop offset="0%" stop-color="#aea795"/><stop offset="100%" stop-color="#c8c4b7"/></linearGradient><path fill="url(#b)" d="M165.685 11.947c74.055 0 84.639 10.557 84.639 84.544v59.251c0 73.986-10.584 84.543-84.639 84.543h-75.37c-74.055 0-84.639-10.557-84.639-84.543V96.491c0-73.987 10.584-84.544 84.639-84.544h75.37z"/></g><g opacity=".4"><linearGradient id="c" x1=".517" x2=".517" y2="1"><stop offset="0%" stop-color="#fff"/><stop offset="12.5%" stop-opacity=".098" stop-color="#fff"/><stop offset="92.5%" stop-opacity=".098"/><stop offset="100%" stop-opacity=".498"/></linearGradient><path fill="none" stroke="url(#c)" stroke-linecap="round" stroke-linejoin="round" stroke-width="4.077" d="M165.685 11.947c74.055 0 84.639 10.557 84.639 84.544v59.251c0 73.986-10.584 84.543-84.639 84.543h-75.37c-74.055 0-84.639-10.557-84.639-84.543V96.491c0-73.987 10.584-84.544 84.639-84.544h75.37z" vector-effect="non-scaling-stroke"/></g><path fill="#FFF" d="M128 11.947v228.338h37.685c74.055 0 84.639-10.557 84.639-84.543V96.491c0-73.987-10.584-84.544-84.639-84.544H128z" opacity=".2"/><path fill="#404040" d="M118.048 59.833c-1.701 0-3.119 6.571-3.951 15.961a52.009 52.009 0 0 0-12.563 5.279c-7.258-6.082-12.927-9.753-14.133-8.547L74.026 85.902c-1.206 1.205 2.465 6.874 8.548 14.132a51.943 51.943 0 0 0-5.234 12.563c-9.417.831-16.007 2.247-16.007 3.951v18.905c0 1.701 6.571 3.118 15.961 3.95a52.01 52.01 0 0 0 5.261 12.591c-6.068 7.245-9.734 12.9-8.529 14.105l13.375 13.375c1.204 1.204 6.852-2.453 14.086-8.51a52.056 52.056 0 0 0 12.61 5.197c.831 9.416 2.247 16.006 3.951 16.006h18.904c1.702 0 3.119-6.571 3.951-15.96a52.012 52.012 0 0 0 12.563-5.28c7.258 6.082 12.927 9.753 14.133 8.547l13.375-13.375c1.206-1.206-2.465-6.875-8.548-14.133a51.943 51.943 0 0 0 5.234-12.563c9.417-.831 16.007-2.246 16.007-3.95v-18.905c0-1.701-6.571-3.119-15.961-3.951a52.01 52.01 0 0 0-5.261-12.591c6.068-7.244 9.734-12.9 8.529-14.104l-13.375-13.376c-1.204-1.204-6.852 2.453-14.086 8.511a51.976 51.976 0 0 0-12.61-5.197c-.831-9.417-2.247-16.007-3.951-16.007h-18.904zm9.452 42.536c6.267 0 12.278 2.49 16.71 6.921a23.635 23.635 0 0 1 0 33.42 23.631 23.631 0 1 1-16.71-40.341z"/><path fill="#404040" d="M118.048 59.833c-1.701 0-3.119 6.571-3.951 15.961a52.009 52.009 0 0 0-12.563 5.279c-7.258-6.082-12.927-9.753-14.133-8.547L74.026 85.902c-1.206 1.205 2.465 6.874 8.548 14.132a51.943 51.943 0 0 0-5.234 12.563c-9.417.831-16.007 2.247-16.007 3.951v18.905c0 1.701 6.571 3.118 15.961 3.95a52.01 52.01 0 0 0 5.261 12.591c-6.068 7.245-9.734 12.9-8.529 14.105l13.375 13.375c1.204 1.204 6.852-2.453 14.086-8.51a52.056 52.056 0 0 0 12.61 5.197c.831 9.416 2.247 16.006 3.951 16.006h18.904c1.702 0 3.119-6.571 3.951-15.96a52.012 52.012 0 0 0 12.563-5.28c7.258 6.082 12.927 9.753 14.133 8.547l13.375-13.375c1.206-1.206-2.465-6.875-8.548-14.133a51.943 51.943 0 0 0 5.234-12.563c9.417-.831 16.007-2.246 16.007-3.95v-18.905c0-1.701-6.571-3.119-15.961-3.951a52.01 52.01 0 0 0-5.261-12.591c6.068-7.244 9.734-12.9 8.529-14.104l-13.375-13.376c-1.204-1.204-6.852 2.453-14.086 8.511a51.976 51.976 0 0 0-12.61-5.197c-.831-9.417-2.247-16.007-3.951-16.007h-18.904zm9.452 42.536c6.267 0 12.278 2.49 16.71 6.921a23.635 23.635 0 0 1 0 33.42 23.631 23.631 0 1 1-16.71-40.341z" filter="url(#d)" opacity=".3"/><defs><filter id="d" width="134.404" height="134.404" x="60.3" y="58.8" filterUnits="userSpaceOnUse"><feGaussianBlur xmlns="http://www.w3.org/2000/svg" stdDeviation=".222"/></filter></defs></svg>

<svg xmlns="http://www.w3.org/2000/svg" style="isolation:isolate" width="256" height="256" viewBox="0 0 256 256">
 <defs>
  <filter id="AXkYh6ecH7ExkSKivgdJWIlrkNQCZlaN" width="270.648" height="254.338" x="-7.32" y="2.95" filterUnits="userSpaceOnUse">
   <feGaussianBlur xmlns="http://www.w3.org/2000/svg" in="SourceGraphic" stdDeviation="4.294"/>
   <feOffset xmlns="http://www.w3.org/2000/svg" dx="0" dy="4" result="pf_100_offsetBlur"/>
   <feFlood xmlns="http://www.w3.org/2000/svg" flood-opacity=".4"/>
   <feComposite xmlns="http://www.w3.org/2000/svg" in2="pf_100_offsetBlur" operator="in" result="pf_100_dropShadow"/>
   <feBlend xmlns="http://www.w3.org/2000/svg" in="SourceGraphic" in2="pf_100_dropShadow" mode="normal"/>
  </filter>
 </defs>
 <g filter="url(#AXkYh6ecH7ExkSKivgdJWIlrkNQCZlaN)">
  <linearGradient id="_lgradient_58" x1=".5" x2=".5" y1="-.036" y2="1.036" gradientTransform="matrix(244.648,0,0,228.338,5.676,11.947)" gradientUnits="userSpaceOnUse">
   <stop offset="0%" style="stop-color:rgb(174,167,149)"/>
   <stop offset="100%" style="stop-color:rgb(200,196,183)"/>
  </linearGradient>
  <path fill="url(#_lgradient_58)" d="M 165.685 11.947 C 239.74 11.947 250.324 22.504 250.324 96.491 L 250.324 155.742 C 250.324 229.728 239.74 240.285 165.685 240.285 L 90.315 240.285 C 16.26 240.285 5.676 229.728 5.676 155.742 L 5.676 96.491 C 5.676 22.504 16.26 11.947 90.315 11.947 L 165.685 11.947 Z"/>
 </g>
 <g opacity=".4">
  <linearGradient id="_lgradient_59" x1=".517" x2=".517" y1="0" y2="1">
   <stop offset="0%" style="stop-color:rgb(255,255,255)"/>
   <stop offset="12.5%" stop-opacity=".098" style="stop-color:rgb(255,255,255)"/>
   <stop offset="92.5%" stop-opacity=".098" style="stop-color:rgb(0,0,0)"/>
   <stop offset="100%" stop-opacity=".498" style="stop-color:rgb(0,0,0)"/>
  </linearGradient>
  <path fill="none" stroke="url(#_lgradient_59)" stroke-linecap="round" stroke-linejoin="round" stroke-width="4.077" d="M 165.685 11.947 C 239.74 11.947 250.324 22.504 250.324 96.491 L 250.324 155.742 C 250.324 229.728 239.74 240.285 165.685 240.285 L 90.315 240.285 C 16.26 240.285 5.676 229.728 5.676 155.742 L 5.676 96.491 C 5.676 22.504 16.26 11.947 90.315 11.947 L 165.685 11.947 Z" vector-effect="non-scaling-stroke"/>
 </g>
 <g opacity=".2">
  <path fill="#FFFFFF" d="M 128 11.947 L 128 240.285 L 165.685 240.285 C 239.74 240.285 250.324 229.728 250.324 155.742 L 250.324 96.491 C 250.324 22.504 239.74 11.947 165.685 11.947 L 128 11.947 Z"/>
 </g>
 <g>
  <g>
   <path fill="#404040" d="M 118.048 59.833 C 116.347 59.833 114.929 66.404 114.097 75.794 C 109.696 76.995 105.472 78.77 101.534 81.073 C 94.276 74.991 88.607 71.32 87.401 72.526 L 74.026 85.902 C 72.82 87.107 76.491 92.776 82.574 100.034 C 80.286 103.974 78.526 108.198 77.34 112.597 C 67.923 113.428 61.333 114.844 61.333 116.548 L 61.333 135.453 C 61.333 137.154 67.904 138.571 77.294 139.403 C 78.487 143.813 80.256 148.046 82.555 151.994 C 76.487 159.239 72.821 164.894 74.026 166.099 L 87.401 179.474 C 88.605 180.678 94.253 177.021 101.487 170.964 C 105.444 173.242 109.684 174.989 114.097 176.161 C 114.928 185.577 116.344 192.167 118.048 192.167 L 136.952 192.167 C 138.654 192.167 140.071 185.596 140.903 176.207 C 145.304 175.006 149.528 173.23 153.466 170.927 C 160.724 177.009 166.393 180.68 167.599 179.474 L 180.974 166.099 C 182.18 164.893 178.509 159.224 172.426 151.966 C 174.714 148.026 176.474 143.802 177.66 139.403 C 187.077 138.572 193.667 137.157 193.667 135.453 L 193.667 116.548 C 193.667 114.847 187.096 113.429 177.706 112.597 C 176.513 108.187 174.744 103.954 172.445 100.006 C 178.513 92.762 182.179 87.106 180.974 85.902 L 167.599 72.526 C 166.395 71.322 160.747 74.979 153.513 81.037 C 149.556 78.758 145.316 77.011 140.903 75.84 C 140.072 66.423 138.656 59.833 136.952 59.833 L 118.048 59.833 Z M 127.5 102.369 C 133.767 102.369 139.778 104.859 144.21 109.29 C 148.641 113.722 151.131 119.733 151.131 126 C 151.131 132.268 148.641 138.278 144.21 142.71 C 139.778 147.142 133.767 149.631 127.5 149.631 C 121.233 149.631 115.222 147.142 110.79 142.71 C 106.359 138.278 103.869 132.268 103.869 126 C 103.869 119.733 106.359 113.722 110.79 109.29 C 115.222 104.859 121.233 102.369 127.5 102.369 L 127.5 102.369 Z"/>
  </g>
  <g style="opacity:0.3" filter="url(#M7tFc78JihRmxSDoe11uIKGpuXS1YI5Q)">
   <path fill="#404040" d="M 118.048 59.833 C 116.347 59.833 114.929 66.404 114.097 75.794 C 109.696 76.995 105.472 78.77 101.534 81.073 C 94.276 74.991 88.607 71.32 87.401 72.526 L 74.026 85.902 C 72.82 87.107 76.491 92.776 82.574 100.034 C 80.286 103.974 78.526 108.198 77.34 112.597 C 67.923 113.428 61.333 114.844 61.333 116.548 L 61.333 135.453 C 61.333 137.154 67.904 138.571 77.294 139.403 C 78.487 143.813 80.256 148.046 82.555 151.994 C 76.487 159.239 72.821 164.894 74.026 166.099 L 87.401 179.474 C 88.605 180.678 94.253 177.021 101.487 170.964 C 105.444 173.242 109.684 174.989 114.097 176.161 C 114.928 185.577 116.344 192.167 118.048 192.167 L 136.952 192.167 C 138.654 192.167 140.071 185.596 140.903 176.207 C 145.304 175.006 149.528 173.23 153.466 170.927 C 160.724 177.009 166.393 180.68 167.599 179.474 L 180.974 166.099 C 182.18 164.893 178.509 159.224 172.426 151.966 C 174.714 148.026 176.474 143.802 177.66 139.403 C 187.077 138.572 193.667 137.157 193.667 135.453 L 193.667 116.548 C 193.667 114.847 187.096 113.429 177.706 112.597 C 176.513 108.187 174.744 103.954 172.445 100.006 C 178.513 92.762 182.179 87.106 180.974 85.902 L 167.599 72.526 C 166.395 71.322 160.747 74.979 153.513 81.037 C 149.556 78.758 145.316 77.011 140.903 75.84 C 140.072 66.423 138.656 59.833 136.952 59.833 L 118.048 59.833 Z M 127.5 102.369 C 133.767 102.369 139.778 104.859 144.21 109.29 C 148.641 113.722 151.131 119.733 151.131 126 C 151.131 132.268 148.641 138.278 144.21 142.71 C 139.778 147.142 133.767 149.631 127.5 149.631 C 121.233 149.631 115.222 147.142 110.79 142.71 C 106.359 138.278 103.869 132.268 103.869 126 C 103.869 119.733 106.359 113.722 110.79 109.29 C 115.222 104.859 121.233 102.369 127.5 102.369 L 127.5 102.369 Z"/>
  </g>
  <defs>
   <filter id="M7tFc78JihRmxSDoe11uIKGpuXS1YI5Q" width="134.404" height="134.404" x="60.3" y="58.8" filterUnits="userSpaceOnUse">
    <feGaussianBlur xmlns="http://www.w3.org/2000/svg" stdDeviation=".222"/>
   </filter>
  </defs>
 </g>
</svg>
